X:2992
T:Rumjana
C:anon.
O:Bulgaria
A:Pirin
Z:Transcribed by Frank Nordberg - http://www.musicaviva.com
F:http://abc.musicaviva.com/tunes/bulgaria/rumjana.abc
M:7/8
L:1/8
Q:1/8=264
K:G
d2d e2 d2|B2c d2 d2|d2c d2 c2|[1B2A B2 c2:|[2B3 B2 z2||
B3  B2 A2|G2A B2 B2|B2A B2 A2|  G2D G2 A2|
B3  B2 A2|G2A B2 B2|B2A B2 A2|  G3  G2 z2|]
W:
W:
W:  From Musica Viva - http://www.musicaviva.com
W:  the Internet center for free sheet music downloads.


